**kern	**kern
*part1	*part1
*staff2	*staff1
*I"Piano	*
*clefF4	*clefG2
*k[b-e-a-]	*k[b-e-a-]
=1	=1
4EE- 4E-	4r
4r	4B- 4e- 4g
4r	4B- 4e- 4g
=	=
4BBB- 4BB-	4r
4r	4B- 4e- 4g
4r	4B- 4e- 4g
=	=
4FF 4F	4r
4r	4B- 4d 4a-
4r	4B- 4d 4a-
=	=
4BBB- 4BB-	4r
4r	4B- 4d 4a-
4r	4B- 4d 4a-
=	=
4FF 4F	4r
4r	4B- 4d 4a-
4r	4B- 4d 4a-
=	=
4BBB- 4BB-	4r
4r	4B- 4d 4a-
4r	4B- 4d 4a-
=	=
4EE- 4E-	4r
4r	4B- 4e- 4g
4AA-	4c 4e- 4a-
=	=
4EE- 4E-	4r
4r	4B- 4e- 4g
4r	4B- 4e- 4g
=	=
*-	*-
!!!system-decoration: {(s1,s2)}
